icon-themes/breeze_svg/cmd/sc_gluehorzaligncenter.svg

<svg viewBox="0 0 16 16" xmlns="http://www.w3.org/2000/svg"><path d="m7 2v5h2v-5zm0 7v5h2v-5z" fill="#da4453"/><path d="m2 2v12h12v-12zm1 1h10v10h-10z" fill="#4d4d4d"/><path d="m8 6c-1.1045695 0-2 .8954305-2 2s.8954305 2 2 2 2-.8954305 2-2-.8954305-2-2-2zm0 1c.5522847 0 1 .4477152 1 1s-.4477153 1-1 1-1-.4477152-1-1 .4477153-1 1-1z" fill="#1d99f3"/></svg>

<svg xmlns="http://www.w3.org/2000/svg" viewBox="0 0 16 16">
 <path 
     style="fill:#da4453" 
     d="M 7 2 L 7 7 L 9 7 L 9 2 L 7 2 z M 7 9 L 7 14 L 9 14 L 9 9 L 7 9 z "
     />
 <path 
     style="fill:#4d4d4d" 
     d="M 2 2 L 2 14 L 14 14 L 14 2 L 2 2 z M 3 3 L 13 3 L 13 13 L 3 13 L 3 3 z "
     />
 <path 
     style="fill:#1d99f3" 
     d="M 8 6 C 6.8954305 6 6 6.8954305 6 8 C 6 9.1045695 6.8954305 10 8 10 C 9.1045695 10 10 9.1045695 10 8 C 10 6.8954305 9.1045695 6 8 6 z M 8 7 C 8.5522847 7 9 7.4477152 9 8 C 9 8.5522848 8.5522847 9 8 9 C 7.4477153 9 7 8.5522848 7 8 C 7 7.4477152 7.4477153 7 8 7 z "
     />
 </svg>
